X:17
T:Wohlfahrt 17 Op 54 No 9
C:Franz Wohlfahrt / K.H. Aiquoni
L:1/8
Q:1/4=100
M:3/4
I:linebreak $
K:G
"G" (BG)DB, G, z | (dB)GD B, z | (BG)DB, G, z | (dB)GD B, z |$"C" (ec)GE C z | (ge)cG E z | 
"G" (bg)dB G z | (BG)DB, G, z |$"D7" (dc)AF D z |"G" (ed)Bd g z |"D7" (dc)AF D z |"G" (ed)Bd g z |$ 
"D" A,DFA d z |"A7" A,G^ce a z |"D" DFAd fa |"D7" bafe d=c ||$"G" BGDB, G, z | (dB)GD B, z | 
(BG)DB, G, z | (dB)GD B, z |$"C" (ec)GE C z | (ge)cG E z |"G" (bg)dB G z | (BG)DB, G, z |$ 
"E7" edB^G E z |"Am" baec A z |"D7" dcAF D z |"G" agdB G z |$"Am" EAcd e z |"D7" DFAc f z | 
"G" gdBGDB, | G, z z2 z2 |] 



